en/_assets/datasphere/jupyterlab/load.svg

<svg width="14" height="14" viewBox="0 0 14 14" fill="none" xmlns="http://www.w3.org/2000/svg">
<path fill-rule="evenodd" clip-rule="evenodd" d="M6.99998 1.5C3.96242 1.5 1.5 3.96242 1.5 6.99998C1.5 10.0375 3.96242 12.5 6.99998 12.5C9.0348 12.5 10.8125 11.3953 11.7646 9.74942C11.972 9.39088 12.4308 9.26836 12.7894 9.47576C13.1479 9.68317 13.2704 10.142 13.063 10.5005C11.8538 12.5909 9.5919 14 6.99998 14C3.134 14 0 10.866 0 6.99998C0 3.134 3.134 0 6.99998 0C9.5919 0 11.8538 1.4091 13.063 3.49945C13.2704 3.85799 13.1479 4.31679 12.7894 4.52419C12.4308 4.7316 11.972 4.60908 11.7646 4.25053C10.8125 2.60463 9.0348 1.5 6.99998 1.5ZM7.53035 3.96966C7.82324 4.26255 7.82324 4.73742 7.53035 5.03032L6.31069 6.24998H13.25C13.6642 6.24998 14 6.58577 14 6.99998C14 7.41419 13.6642 7.74998 13.25 7.74998H6.31069L7.53035 8.96964C7.82324 9.26253 7.82324 9.73741 7.53035 10.0303C7.23746 10.3232 6.76258 10.3232 6.46969 10.0303L3.9697 7.53031C3.67681 7.23742 3.67681 6.76254 3.9697 6.46965L6.46969 3.96966C6.76258 3.67676 7.23746 3.67676 7.53035 3.96966Z" fill="black" fill-opacity="0.85"/>
</svg>

<svg xmlns="http://www.w3.org/2000/svg" width="14" height="14" fill="none" viewBox="0 0 14 14">
    <path fill="#000" fill-opacity=".85" fill-rule="evenodd" d="M7 1.5a5.5 5.5 0 1 0 4.765 8.25.75.75 0 0 1 1.298.75 7 7 0 1 1 0-7.001.75.75 0 1 1-1.298.752A5.497 5.497 0 0 0 7 1.5Zm.53 2.47a.75.75 0 0 1 0 1.06L6.31 6.25h6.94a.75.75 0 0 1 0 1.5H6.31l1.22 1.22a.75.75 0 0 1-1.06 1.06l-2.5-2.5a.75.75 0 0 1 0-1.06l2.5-2.5a.75.75 0 0 1 1.06 0Z" clip-rule="evenodd"/>
</svg>
